X:6
T:The Honourable, Mrs. John Ramsay's Reel
T:aka - Joe's Reel
R:reel
O:18th century Scotland
D:Highland Classic, Carl MacKenzie, 2007 S:http://www.cranfordpub.com/recordings/carl.htm
B:Niel Gow's 4th Repository, 1800
Z:psc -  http://www.cranfordpub.com
L:1/8
Q:333
M:C|
K:Bb
E|DFFd B2 FB|GBFB AccE|DFFd BGFD|ECFE DB,B,:|
e|dBfd c_Aec|dBAB FBDB|dBfd c_Aec|dfec B/B/B Be|
dBfd c_Aec|dBAB FBDF|B,DFB GEBe|dBcA B2 B|]
